d1 $ "bd*4" # pSize 400


d1 $ "bd"


d1 $ "bd*32"



d1 $ "bd*32"
# pSize (slow 8 $ 500*sine)
    # pXY (slow 8 $ 500*sine) (slow 8 $ 500*sine)
    |-| pXY 200 200

d1 $ "bd*32"  # gain 2
            # pSize (slow 8 $ sine*300)
             # pXY (slow 8 $ sine*600 + rand*200) (slow 8 $ sine*600 + rand*200)
             |+| pXY (-400) (-400)


E:\tidalcyclesWindows\p5jsDirt\p5hs\scripts\BootTidal.hs

d2 $ "hc*4"
# hpf 200

let pFont = pS "font"
    pRotate = pF "rotate"
    testFont = "AkrutiTml2Bold-48.vlw"
    pX = pF "x"
    pSize = pF "dispTextSize"
    pY = pF "y"
    pXY x y = (pX x # pY y)

:{
:cd /run/media/will/4028-FD6C/M/classes/15112/messingWithStackProjects/p5hs
/run/media/will/4028-FD6C/M/classes/15112/messingWit
:!pwd

:browse
:cd
:script scripts/BootTidal.hs
:}


let boxtrain = do {
      let fcConstant = (frameCount/5)
          spd = (sin (fcConstant*0.000000016))
          xshift = (sin (fcConstant*0.0001))*2
          box' x = do
            -- line (20*fcConstant) 2 40 500
            rotateY $ (fcConstant * x)*0.0001
            -- rotate (makeTidalParam "cps")
            rotate $ (fcConstant ** 2 * x)*0.000005
            rotateZ $ (fcConstant * x)*0.00001
            rotateX $ (fcConstant * x)*0.001
            translate xshift (50) blank
            -- translate (xshift/8) ((2 *) $ sin (fcConstant*0.0005)) blank
            -- rect 200 0 200 200
            -- box 200 0 200 200 blank
            circle 0 ((frameCount**0.3 + frameCount*0.2)/200) 100
            -- torus 200 20 200
        -- rotate cps'
          boxes = [box' x | x <- fmap makeValue [1..3]]
      in listEnumToFunc boxes }
    b2 = do
      boxtrain
      translate (-200) (30) 100
      rotateZ 20
in draw $ do
  translate (500) (0 ) (20)
  listEnumToFunc (take 8 $ cycle [b2])


length $ show cube

draw $ do
  rotate $ frameCount / 8
  listEnumToFunc cube

cube = [box (x + x *0.1) y 2 2 2 | x <- listgen, y <- listgen, y <- listgen]

k = [box y (y*2) (y*y) (y*y*y) blank | y <- map makeValue [0..20]]

draw $ do
  rotateY $ (frameCount * 0.025 * (makeTidalParam "cps") + 20)
  rect 00 00 200 200
